X:1
T:Down By The Riverside
C:Traditional
Z:Copyright © www.realbook.site
L:1/4
M:4/4
I:linebreak $
K:F
V:1 treble nm=" " snm=" "
V:1
 ^G/A/G/ |:"F" A C2 D |"Bb7" F2 G2 |"F" z A A3/2 ^G/ | A =G/F/- F z |1$"C7" z G G3/2 ^F/ | %6
 G =F/E/- E z |"F" z A A3/2 ^G/ | A =G/F/- F A :|2$"C7" G G2 B | A2 G2 |"F" F4 ||"F7" z F G A |:$ %13
"Bb" B B B B/B/- | B2 z2 |"F" A A A G/F/- | F2 z2 |1$"C7" G G3 | F2 G2 | A4 |"F7" z F G A :|2$ %21
"C7" G G3 || A2 G2 |"F" F4 | z4 |] %25

